X:276
T:Jacque's Jig
M:6/8
L:1/8
C:Frederick E. Wilson copyright 2006
R:Jig
K:DMaj
"D"D3F2A|"Signo"d2e"D/F"f2f|"G"g2g "D/F"faf|"Em"ede "A"fdB|
"D"A3"Em"AFA|"D/F"d2ef2f|"G"g3"D/F"fef|"A"(e3e)dB|
"D"A3 AFA|d2e  "D/F"f2f|"G"g2g "D/F"f/2g/2af|"Em"ede "A"fdB|
"D"Ad"G"B "D/F"AFG|"D"A2G "D/F"F2D|"Em"EF"G"GF2D|"A"(E3E2)d||
"G"efg "D/F"f2d|"G"efg "D/F"f2d|"G"efg "D/F"fed|"A"cdBA2d|
"G"efg "D/F"f2d|"Em"bag "D"a2f|"G"bag "Em"agf|"A"(e3e2)d|
"G"bc'd' "D/F"a2f|"Em"bag "D"a2f|"G"g2g "D/F"faf|"Em"ede "G"fdB|
"D"AFA "Em"def|"D/F"gfe f2a|"G"agf "D/F"gfe|"Em"fed "A"edc||
"D   Dal Signo"dAF DFA||
